X: 19022
T: International Schottische, The
R: barndance
M: 4/4
K: Gmajor
B/c/ +segno+|db ca|Bg g/d/B/G/|Fe e/d/c/A/|Gg g/d/B/c/|
db ca|Bg g/d/B/G/|Fe e/d/c/A/|G{A}G/F/ +fermata+ G||
A/A/|gf e*((3A/^c/e/)|fe d((3d/^c/d/)|eB ^cA|d/e/f/g/ aA/A/|
gf e((3A/^c/e/)|fe e{e}((3d/^c/d/)|eB ^cA|d>^d f/e/=d/^c/ +segno+||
z|GA/B/ c/d/e/f/|gB d2|eA c2|dG B2|
GA/B/ c/d/e/f/|gB d2|eA cF|G{A}G/F/ G +D.C.+||

